X:1
T:Rhone, 87.87 D
T:Rhone, 87.87 D
T:Stanley LeFevre Krebs, 1899
T:Public Domain Courtesy of the Cyber Hymnal™
C:Stanley LeFevre Krebs, 1899
Z:Public Domain
Z:Courtesy of the Cyber Hymnal™
%%score ( 1 2 ) 3
L:1/8
Q:1/4=108
M:4/4
K:F
V:1 treble 
V:2 treble 
V:3 bass 
V:1
 [FA]2 [EG]2 [FB]2 [FA]2 | [Gc]2 [FA]2 [FA]2 [EG]2 | [FA]2 [Fc]2 [DG]2 [GB]2 | [FA]2 [EG]2 F4 | %4
 [FA]2 [EG]2 [FB]2 [FA]2 | [Gc]2 [FA]2 [FA]2 [EG]2 | [FA]2 [Ac]2 [Gc]2 [FA]2 | [EG]2 [F=B]2 [Ec]4 | %8
 [Ge]2 [Gc]2 [Ff]2 [Fc]2 | [EB]2 [FA]2 [FA]2 [EG]2 | [Ge]2 [Gc]2 [Ff]2 [Fd]2 | [Ec]2 [F=B]2 [Ec]4 | %12
 [FA]2 [EG]2 [FB]2 [FA]2 | [Gc]2 [FA]2 [FA]2 [EG]2 | [FA]2 [Fc]2 [DG]2 [GB]2 | [FA]2 [EG]2 F4 |] %16
V:2
 x8 | x8 | x8 | x4 F4 | x8 | x8 | x8 | x8 | x8 | x8 | x8 | x8 | x8 | x8 | x8 | x4 F4 |] %16
V:3
 [F,C]2 [C,C]2 [D,B,]2 [F,C]2 | [E,C]2 [F,C]2 [C,C]2 [C,C]2 | [F,C]2 [A,,C]2 [B,,B,]2 [G,,D]2 | %3
 [C,C]2 [C,B,]2 [F,A,]4 | [F,C]2 [C,C]2 [D,B,]2 [F,C]2 | [E,C]2 [F,C]2 [C,C]2 [C,C]2 | %6
 [F,C]2 [F,C]2 [E,C]2 [F,C]2 | [G,C]2 [G,D]2 [C,C]4 | [C,C]2 [E,C]2 [F,A,]2 [A,C]2 | %9
 [G,C]2 [F,C]2 [C,C]2 [C,C]2 | [C,C]2 [E,C]2 [F,A,]2 [F,C]2 | [G,C]2 [G,D]2 [C,C]4 | %12
 [F,C]2 [C,C]2 [D,B,]2 [F,C]2 | [E,C]2 [F,C]2 [C,C]2 [C,C]2 | [F,C]2 [A,,C]2 [B,,B,]2 [G,,D]2 | %15
 [C,C]2 [C,B,]2 [F,A,]4 |] %16

